X:1
T:Title
%%score { ( 1 4 ) | ( 2 3 5 ) }
L:1/8
Q:1/4=104
M:4/4
K:Bb
V:1 treble nm="Grand Piano"
V:4 treble 
V:2 bass 
V:3 bass 
V:5 bass 
V:1
 [DF]2 [DF]2 [B,D][CE][DF][EG] | [DF]2 [Fd]2 [DB]2 [B,DF]2 | [CA]2 [A,C]D E2 A2 | %3
w: Thomas~Benton * * * * *|||
 [DG]2 z C .D2 EE | [DF]2 [DF]2 [B,D][CE][DF][EG] | [DF]2 [Fd]2 [DB]2 [DG]2 | A2 GA B2 =E2 | %7
w: ||||
 F2 F>G ABc_d | .[Dd]2 .[F,D=E]2 GABc | [Fd]2 [Bd]2 d-[Gd] [Fd]2 | .e2 .G2 .A2 E2 | %11
w: ||||
 [Ee]2 [ce]2 e-[Ge] [Fe]2 | D-[DF]D-[DA] Bcde | [Ff]2 [FB]2 [Gc]2 [Ge]2 | d2 Bc d B2 c | %15
w: ||||
 [DB]6 z2 |] %16
w: |
V:2
 [B,,B,]2 [B,,B,]2 [B,,F,]2 [B,,B,]2 | [B,,B,]2 [B,,B,]2 [B,,F,]2 B,,2 | F,2 z B, [F,C]2 [F,E]2 | %3
 z4 z B,3 | [B,,B,]2 [B,,B,]2 [B,,F,]2 [B,,B,]2 | [B,,B,]2 [B,,B,]2 [B,,F,]2 [B,,F,]2 | %6
 [C,F,C]2 [C,=E,C][C,F,C] [C,G,C]2 [C,B,C]2 | [F,A,C]2 z2 z4 | z F z F [B,,F,]2 [F,,F,]2 | %9
 [B,,F,]2 [F,,F,]2 [D,F,]2 [D,F,]2 | [C,F,]2 [F,,F,]2 [C,F,]2 [F,,F,]2 | %11
 [C,F,]2 [F,,F,]2 [C,F,]2 [F,,F,]2 | [B,,F,]2 [F,,F,]2 [B,,F,]2 [B,,F,]2 | %13
 [D,B,]2 [D,B,]2 [E,B,]2 [C,C]2 | z4 .F2 z2 | [B,,B,]6 z2 |] %16
V:3
 x8 | x8 | z2 F,2 z4 | [B,,F,]2 B,,-[B,,E,] .B,2 CC | x8 | x8 | x8 | x8 | [B,,F,]2 F,,2 z4 | x8 | %10
 x8 | x8 | x8 | x8 | [F,B,F]2 [G,B,D][^F,B,=E] [=F,B,]- [F,B,D]2 [F,A,_E] | x8 |] %16
V:4
 x8 | x8 | x8 | z2 B,2 z D3 | x8 | x8 | x8 | x8 | z4 D2 D2 | z4 .A2 z2 | E-[EF]E-[EF] E-[EB]cd | %11
 z4 .A2 z2 | .d2 .G2 D2 F2 | x8 | x8 | x8 |] %16
V:5
 x8 | x8 | x8 | z2 .D,2 [B,,F,]4 | x8 | x8 | x8 | x8 | x8 | x8 | x8 | x8 | x8 | x8 | x8 | x8 |] %16

